static/figma.svg

<svg fill="none" height="57" viewBox="0 0 57 57" width="57" xmlns="http://www.w3.org/2000/svg"><path d="m28 28.5c0-5.247 4.253-9.5 9.5-9.5s9.5 4.253 9.5 9.5-4.253 9.5-9.5 9.5-9.5-4.253-9.5-9.5z" fill="#1abcfe"/><path d="m9 47.5c0-5.247 4.253-9.5 9.5-9.5h9.5v9.5c0 5.247-4.253 9.5-9.5 9.5s-9.5-4.253-9.5-9.5z" fill="#0acf83"/><path d="m28 0v19h9.5c5.247 0 9.5-4.253 9.5-9.5s-4.253-9.5-9.5-9.5z" fill="#ff7262"/><path d="m9 9.5c0 5.247 4.253 9.5 9.5 9.5h9.5v-19h-9.5c-5.247 0-9.5 4.253-9.5 9.5z" fill="#f24e1e"/><path d="m9 28.5c0 5.247 4.253 9.5 9.5 9.5h9.5v-19h-9.5c-5.247 0-9.5 4.253-9.5 9.5z" fill="#a259ff"/></svg>

<svg width="57" height="57" viewBox="0 0 57 57" fill="none" xmlns="http://www.w3.org/2000/svg">
<path d="M28 28.5C28 23.253 32.253 19 37.5 19C42.747 19 47 23.253 47 28.5C47 33.747 42.747 38 37.5 38C32.253 38 28 33.747 28 28.5Z" fill="#1ABCFE"/>
<path d="M9 47.5C9 42.253 13.253 38 18.5 38H28V47.5C28 52.747 23.747 57 18.5 57C13.253 57 9 52.747 9 47.5Z" fill="#0ACF83"/>
<path d="M28 0V19H37.5C42.747 19 47 14.747 47 9.5C47 4.253 42.747 0 37.5 0H28Z" fill="#FF7262"/>
<path d="M9 9.5C9 14.747 13.253 19 18.5 19H28V0H18.5C13.253 0 9 4.253 9 9.5Z" fill="#F24E1E"/>
<path d="M9 28.5C9 33.747 13.253 38 18.5 38H28V19H18.5C13.253 19 9 23.253 9 28.5Z" fill="#A259FF"/>
</svg>
